X: 32
T: Father O'Flynn
R: jig
M: 6/8
L: 1/8
K: Dmaj
|:d|dAF DFA|Bed cBA|dcd ede|faf ecA|
dAF DFA|Bed cBA|dcd ede|fdd d2:|
|:g|fdf fga|ece efe|dcd fed|cAA A2=c|
BGB Bcd|AFA ABc|dcd efg|1 fdd d2:|2 fdd d3 |]
F: https://thesession.org/tunes/1080#setting1080

